!!!!SEGMENT: pl-cz--i-78_kasprzykowski-ignacy--lswieta-boga-rodzica.krn
!!!cenid: 18xx:854
!!!COM: Kasprzykowski, Ignacy
!!!COM-rismid: pe30098316
!!!CDT: -1752/02/17
!!!CNT:
!!!OTL: Święta Boga Rodzica
!!!PDT:
!!!AGN:
!!!SMS-siglum: PL-CZ
!!!SMS-shelfmark: I-78
!!!SMS-shelfwork: W
!!!SMS-variant:
!!!SMS-altvar:
!!!NIFC-rismid: 300000575
!!!URL-scan: http://repozytorium.nifc.pl/skany/pl-cz-nut--i-78
!!!ONB-nifc:
!!!key: F
**kern	**dynam	**kern	**dynam	**kern	**dynam	**kern	**dynam	**kern	**dynam	**kern	**text	**text	**dynam	**kern	**text	**text	**kern	**text	**text	**dynam	**kern	**text	**text	**dynam	**kern	**fing	**dynam
*part10	*part10	*part9	*part9	*part8	*part8	*part7	*part7	*part6	*part6	*part5	*part5	*part5	*part5	*part4	*part4	*part4	*part3	*part3	*part3	*part3	*part2	*part2	*part2	*part2	*part1	*	*part1
*staff10	*	*staff9	*	*staff8	*	*staff7	*	*staff6	*	*staff5	*staff5	*staff5	*	*staff4	*staff4	*staff4	*staff3	*staff3	*staff3	*	*staff2	*staff2	*staff2	*	*staff1	*	*
*I"ViolonZello et ContrBaſso	*	*I"ViolonZello et ContrBaſso	*	*I"Alto Viola	*	*I"Violino 2do	*	*I"Violino 1mo	*	*I"Barison	*	*	*	*I"Tenori	*	*	*I"Alto	*	*	*	*I"Soprano	*	*	*	*I"Violino vel: Fluto	*	*
*I'cb	*	*I'vlc	*	*I'a-vla	*	*I'vl 2	*	*I'vl 1	*	*I'bariton	*	*	*	*I'T.	*	*	*I'A	*	*	*	*I'S.	*	*	*	*I'Vn vel Fl.	*	*
*Icbass	*	*Icello	*	*Iviola	*	*Ivioln	*	*Ivioln	*	*Ibarit	*	*	*	*	*	*	*	*	*	*	*	*	*	*	*	*	*
*ICstr	*	*ICstr	*	*ICstr	*	*ICstr	*	*ICstr	*	*ICvox	*	*	*	*	*	*	*	*	*	*	*	*	*	*	*	*	*
*IGacmp	*	*IGacmp	*	*IGacmp	*	*IGacmp	*	*IGacmp	*	*IGcoro	*	*	*	*	*	*	*	*	*	*	*	*	*	*	*	*	*
*clefF4	*	*clefF4	*	*clefC3	*	*clefG2	*	*clefG2	*	*clefF4	*	*	*	*clefG2	*	*	*clefG2	*	*	*	*clefG2	*	*	*	*clefG2	*	*
*k[b-]	*	*k[b-]	*	*k[b-]	*	*k[b-]	*	*k[b-]	*	*k[b-]	*	*	*	*k[b-]	*	*	*k[b-]	*	*	*	*k[b-]	*	*	*	*k[b-]	*	*
*F:	*	*F:	*	*F:	*	*F:	*	*F:	*	*F:	*	*	*	*F:	*	*	*F:	*	*	*	*F:	*	*	*	*F:	*	*
*M4/4	*	*M4/4	*	*M4/4	*	*M4/4	*	*M4/4	*	*M4/4	*	*	*	*M4/4	*	*	*M4/4	*	*	*	*M4/4	*	*	*	*M4/4	*	*
*met(c.)	*	*met(c.)	*	*met(c.)	*	*met(c.)	*	*met(c.)	*	*met(c.)	*	*	*	*met(c.)	*	*	*met(c.)	*	*	*	*met(c.)	*	*	*	*met(c.)	*	*
=1	=1	=1	=1	=1	=1	=1	=1	=1	=1	=1	=1	=1	=1	=1	=1	=1	=1	=1	=1	=1	=1	=1	=1	=1	=1	=1	=1
*all\right	*	*all\right	*	*all\right	*	*all\right	*	*all\right	*	*all\right	*	*	*	*all\right	*	*	*all\right	*	*	*	*all\right	*	*	*	*all\right	*	*
!LO:TX:a:t=4.	!	!LO:TX:a:t=4.	!	!LO:TX:a:t=4.	!	!LO:TX:a:t=4.	!	!LO:TX:a:t=4.	!	!	!	!	!	!LO:TX:a:t=2	!	!	!	!	!	!	!LO:TX:a:i:t=Solo	!	!	!	!LO:TX:a:t=4.	!	!
!LO:TX:a:i:t=Andan&colon;	!	!LO:TX:a:i:t=Andan&colon;	!	!LO:TX:a:i:t=Andan&colon;	!	!LO:TX:a:i:t=Andan	!	!LO:TX:a:i:t=Andan	!	!LO:TX:a:i:t=Andan.	!	!	!	!LO:TX:a:i:t=Andan.	!	!	!LO:TX:a:i:t=Andan&colon;	!	!	!	!LO:TX:a:i:t=Andanti	!	!	!	!LO:TX:a:i:t=Andan&colon;	!	!
!LO:TX:a:i:t=Offertorium	!	!LO:TX:a:i:t=Offertorium	!	!LO:TX:a:i:t=Offertorium	!	!LO:TX:a:i:t=Offertorium	!	!LO:TX:a:i:t=Offertorium	!	!LO:TX:a:i:t=Offertorium	!	!	!	!LO:TX:a:i:t=Offer&colon;	!	!	!LO:TX:a:i:t=Offertorium	!	!	!	!LO:TX:a:i:t=Offertorium	!	!	!	!LO:TX:a:i:t=Offertorium	!	!
00ryy	.	00r	.	00r	.	00r	.	00r	.	4F\	Swię-	.	.	0r	.	.	4f/	Swię-	.	.	4a/	Swię-	.	.	00r	.	.
.	.	.	.	.	.	.	.	.	.	4F\	-ta	.	.	.	.	.	4f/	-ta	.	.	4a/	-ta	.	.	.	.	.
.	.	.	.	.	.	.	.	.	.	4F\	Bo-	.	.	.	.	.	4f/	Bo-	.	.	4a/	Bo-	.	.	.	.	.
.	.	.	.	.	.	.	.	.	.	4C\	-ga	.	.	.	.	.	4g/	-ga	.	.	4b-/	-ga	.	.	.	.	.
=2	=2	=2	=2	=2	=2	=2	=2	=2	=2	=2	=2	=2	=2	=2	=2	=2	=2	=2	=2	=2	=2	=2	=2	=2	=2	=2	=2
.	.	.	.	.	.	.	.	.	.	4C\	ro-	.	.	.	.	.	4a/	ro-	.	.	4cc\	ro-	.	.	.	.	.
.	.	.	.	.	.	.	.	.	.	4E\	-dzi-	.	.	.	.	.	4g/	-dzi-	.	.	4b-\	-dzi-	.	.	.	.	.
*	*	*	*	*	*	*	*	*	*	*2\right	*	*	*	*	*	*	*	*	*	*	*2\right	*	*	*	*	*	*
.	.	.	.	.	.	.	.	.	.	2F\	-co	.	.	.	.	.	2f/	-co	.	.	2a\	-co	.	.	.	.	.
=3	=3	=3	=3	=3	=3	=3	=3	=3	=3	=3	=3	=3	=3	=3	=3	=3	=3	=3	=3	=3	=3	=3	=3	=3	=3	=3	=3
!	!	!	!	!	!	!	!	!	!	!	!	!	!	!	!	!	!LO:TX:a:t=2	!	!	!	!	!	!	!	!	!	!
.	.	.	.	.	.	.	.	.	.	4F\	Kto-	.	.	4cc\	Kto-	.	0r	.	.	.	4a/	Kto-	.	.	.	.	.
.	.	.	.	.	.	.	.	.	.	4F\	-ras	.	.	4cc\	-ras	.	.	.	.	.	4a/	-raś	.	.	.	.	.
.	.	.	.	.	.	.	.	.	.	4F\	ży-	.	.	4cc\	ży-	.	.	.	.	.	4a/	ży-	.	.	.	.	.
.	.	.	.	.	.	.	.	.	.	4C\	-cie	.	.	4b-\	-cie	.	.	.	.	.	4g/	-cie	.	.	.	.	.
=4	=4	=4	=4	=4	=4	=4	=4	=4	=4	=4	=4	=4	=4	=4	=4	=4	=4	=4	=4	=4	=4	=4	=4	=4	=4	=4	=4
.	.	.	.	.	.	.	.	.	.	(4F\	ca-	.	.	2b-/	ca-	.	.	.	.	.	2g/	ca-	.	.	.	.	.
.	.	.	.	.	.	.	.	.	.	4C\)	.	.	.	.	.	.	.	.	.	.	.	.	.	.	.	.	.
.	.	.	.	.	.	.	.	.	.	(4AA/	.	.	.	2a/	-łe	.	.	.	.	.	2f/	-łe	.	.	.	.	.
.	.	.	.	.	.	.	.	.	.	4FF/)	-łe	.	.	.	.	.	.	.	.	.	.	.	.	.	.	.	.
=5	=5	=5	=5	=5	=5	=5	=5	=5	=5	=5	=5	=5	=5	=5	=5	=5	=5	=5	=5	=5	=5	=5	=5	=5	=5	=5	=5
!	!LO:DY:b:rj	!	!LO:DY:b:rj	!	!LO:DY:b	!	!LO:DY:b:rj:t=p.	!LO:TX:b:i:t=dol.	!LO:DY:b:rj	!	!	!LO:TX:a:t=2.	!	!	!	!	!	!	!	!	!	!	!	!	!LO:TX:b:i:t=dolce	!	!
4F\yy	py	4F\	p	4c\	p	4f/	p	4a/	p	4F\	By-	.	.	0r	.	.	4f/	By-	.	.	4a/	By-	.	.	4aa\	.	.
4F\yy	.	4F\	.	4c\	.	4f/	.	4a/	.	4F\	-łas	.	.	.	.	.	4f/	-łas	.	.	4a/	-łas	.	.	4aa\	.	.
4F\yy	.	4F\	.	4c\	.	4f/	.	4a/	.	4F\	pas-	.	.	.	.	.	4f/	pas-	.	.	4a/	pas-	.	.	4aa\	.	.
4C\yy	.	4C\	.	4c\	.	4g/	.	4b-/	.	4C\	-mem	.	.	.	.	.	4g/	-mem	.	.	4b-/	-mem	.	.	4bb-\	.	.
!	!	!	!	!	!	!	!	!	!	!LO:LB:g=original	!	!	!	!	!	!	!	!	!	!	!	!	!	!	!	!	!
=6	=6	=6	=6	=6	=6	=6	=6	=6	=6	=6	=6	=6	=6	=6	=6	=6	=6	=6	=6	=6	=6	=6	=6	=6	=6	=6	=6
4C\yy	.	4C\	.	4.c\	.	4.a/	.	4.cc\	.	4C\	u-	.	.	.	.	.	4.a/	u-	.	.	4.cc\	u-	.	.	4.ccc\	.	.
4E\yy	.	4E\	.	.	.	.	.	.	.	4E\	-bos-	.	.	.	.	.	.	.	.	.	.	.	.	.	.	.	.
.	.	.	.	8B-\	.	8g/	.	8b-\	.	.	.	.	.	.	.	.	8g/	-bos-	.	.	8b-\	-bos-	.	.	8bb-\	.	.
*2\right	*	*2\right	*	*	*	*	*	*	*	*	*	*	*	*	*	*	*	*	*	*	*	*	*	*	*2\right	*	*
2F\yy	.	2F\	.	4A\	.	4f/	.	4a\	.	2F\	-twa	.	.	.	.	.	2f/	-twa	.	.	2a\	-twa	.	.	2aa\	.	.
.	.	.	.	4r	.	4r	.	4r	.	.	.	.	.	.	.	.	.	.	.	.	.	.	.	.	.	.	.
!	!	!	!	!	!	!	!	!	!	!	!	!	!	!	!	!	!	!	!	!	!LO:LB:g=original	!	!	!	!	!	!
=7	=7	=7	=7	=7	=7	=7	=7	=7	=7	=7	=7	=7	=7	=7	=7	=7	=7	=7	=7	=7	=7	=7	=7	=7	=7	=7	=7
!	!	!	!	!	!	!	!	!	!	!	!	!	!	!	!	!	!LO:TX:a:t=2	!	!	!	!	!	!	!	!	!	!
4F\yy	.	4F\	.	4c/	.	4c/	.	4a/	.	4F\	niesʒ-	.	.	4cc\	niesʒ-	.	0r	.	.	.	4a/	niesʒ-	.	.	4aa\	.	.
4F\yyyy	.	4F\	.	4c/	.	4c/	.	4a/	.	4F\	-czę-	.	.	4cc\	-czę-	.	.	.	.	.	4a/	-czę-	.	.	4aa\	.	.
4F\yy	.	4F\	.	4c/	.	4c/	.	4a/	.	4F\	-sia	.	.	4cc\	-sia	.	.	.	.	.	4a/	-scia	.	.	4aa\	.	.
4C\yy	.	4C\	.	4c/	.	4B-/	.	4g/	.	4C\	nie-	.	.	4b-\	nie-	.	.	.	.	.	4g/	nie-	.	.	4gg\	.	.
=8	=8	=8	=8	=8	=8	=8	=8	=8	=8	=8	=8	=8	=8	=8	=8	=8	=8	=8	=8	=8	=8	=8	=8	=8	=8	=8	=8
(y2C/yy	.	(2C/	.	2B-/	.	(2B-/	.	(2g/	.	(4C\	-do-	.	.	2b-/	-do-	.	.	.	.	.	2g/	-do-	.	.	(2gg\	.	<
.	.	.	.	.	.	.	.	.	.	4E\)	.	.	.	.	.	.	.	.	.	.	.	.	.	.	.	.	[ >
4FF/)yy	.	4FF/)	.	4A/	.	4A/)	.	4f/)	.	2F\	-li	.	.	2a/	-li	.	.	.	.	.	2f/	-li	.	.	4ff\)	.	]
4ryy	.	4r	.	4r	.	4r	.	4r	.	.	.	.	.	.	.	.	.	.	.	.	.	.	.	.	4r	.	.
!	!	!	!	!	!	!	!	!	!	!	!	!	!	!LO:LB:g=original	!	!	!LO:LB:g=original	!	!	!	!	!	!	!	!	!	!
=9	=9	=9	=9	=9	=9	=9	=9	=9	=9	=9	=9	=9	=9	=9	=9	=9	=9	=9	=9	=9	=9	=9	=9	=9	=9	=9	=9
!LO:TX:a:t=2	!	!LO:TX:a:t=2	!	!LO:TX:a:t=2	!	!LO:TX:a:t=2	!	!LO:TX:a:t=2.	!	!	!	!	!	!	!	!	!	!	!	!	!	!	!	!	!LO:TX:a:t=2	!	!
0ryy	.	0r	.	0r	.	0r	.	0r	.	4C\	Kto-	co	.	4cc\	Kto-	co	4e/	Kto-	co	.	4g/	Kto-	co	.	0r	.	.
.	.	.	.	.	.	.	.	.	.	4C\	-raś	nas	.	4cc\	-raś	nas	4e/	-ras	nas	.	4g/	-ras	nas	.	.	.	.
.	.	.	.	.	.	.	.	.	.	4C\	wszyst-	wzy-	.	4cc\	wszy-	wzy-	4f/	wszyst-	wzy-	.	4a-X/	wszyst-	wzy-	.	.	.	.
.	.	.	.	.	.	.	.	.	.	4C\	-ko	-ciu	.	4cc\	-stko	-ciu	4f/	-ko	-ciu	.	4a-/	-ko	-ciu	.	.	.	.
=10	=10	=10	=10	=10	=10	=10	=10	=10	=10	=10	=10	=10	=10	=10	=10	=10	=10	=10	=10	=10	=10	=10	=10	=10	=10	=10	=10
.	.	.	.	.	.	.	.	.	.	4C/	prze-	bo-	.	4.cc\	pre-	bo-	4.g/	prze-	bo-	.	4.b-/	prze-	bo-	.	.	.	.
.	.	.	.	.	.	.	.	.	.	4C/	-trwa-	.	.	.	.	.	.	.	.	.	.	.	.	.	.	.	.
.	.	.	.	.	.	.	.	.	.	.	.	.	.	8cc\	-trwa-	.	8f/	-trwa-	.	.	8a/	-trwa-	.	.	.	.	.
*	*	*	*	*	*	*	*	*	*	*	*	*	*	*2\right	*	*	*	*	*	*	*	*	*	*	*	*	*
.	.	.	.	.	.	.	.	.	.	2C/	-ła	-li	.	2cc\	-ła	-li	2e/	-ła	-li	.	2g/	-ła	-li	.	.	.	.
=11	=11	=11	=11	=11	=11	=11	=11	=11	=11	=11	=11	=11	=11	=11	=11	=11	=11	=11	=11	=11	=11	=11	=11	=11	=11	=11	=11
!	!	!	!	!	!	!	!	!	!	!LO:TX:a:t=2	!	!	!	!LO:TX:a:t=2	!	!	!LO:TX:a:t=2	!	!	!	!LO:TX:a:t=2	!	!	!	!	!	!
4C/yy	.	4C/	.	4c\	.	4e/	.	4g/	.	0r	.	.	.	0r	.	.	0r	.	.	.	0r	.	.	.	4gg\	.	p
!	!	!	!	!	!	!	!LO:HP:b	!	!	!	!	!	!	!	!	!	!	!	!	!	!	!	!	!	!	!	!
4C/yy	.	4C/	.	4c\	.	4e/	<	4g/	.	.	.	.	.	.	.	.	.	.	.	.	.	.	.	.	4gg\	.	<
4C/yy	.	4C/	.	4c\	.	4f/	.	4a-X/	.	.	.	.	.	.	.	.	.	.	.	.	.	.	.	.	4aa-X\	.	.
4C/yy	.	4C/	.	4c\	.	4f/	[[	4a-/	.	.	.	.	.	.	.	.	.	.	.	.	.	.	.	.	4aa-\	.	[
!	!	!	!	!	!	!	!	!	!	!	!	!	!	!	!	!	!	!	!	!	!	!	!	!	!LO:LB:g=original	!	!
=12	=12	=12	=12	=12	=12	=12	=12	=12	=12	=12	=12	=12	=12	=12	=12	=12	=12	=12	=12	=12	=12	=12	=12	=12	=12	=12	=12
*	*	*	*	*2\right	*	*	*	*	*	*	*	*	*	*	*	*	*	*	*	*	*	*	*	*	*	*	*
!	!	!	!	!	!	!	!LO:HP:b	!	!	!	!	!	!	!	!	!	!	!	!	!	!	!	!	!	!	!	!
2C/yy	.	2C/	.	2c\	.	4.g/	>	4.b-/	.	.	.	.	.	.	.	.	.	.	.	.	.	.	.	.	4.bb-\	.	>
.	.	.	.	.	.	8f/	.	8a-X/	.	.	.	.	.	.	.	.	.	.	.	.	.	.	.	.	8aa-X\	.	.
4C/yy	.	4C/	.	4c\	.	4e/	]	4g/	.	.	.	.	.	.	.	.	.	.	.	.	.	.	.	.	4gg\	.	]
4CC/yy	.	4CC/	.	4r	.	4r	.	4r	.	.	.	.	.	.	.	.	.	.	.	.	.	.	.	.	4r	.	.
!LO:LB:g=original	!	!LO:LB:g=original	!	!LO:LB:g=original	!	!LO:LB:g=original	!	!LO:LB:g=original	!	!LO:LB:g=original	!	!	!	!	!	!	!	!	!	!	!	!	!	!	!	!	!
=13	=13	=13	=13	=13	=13	=13	=13	=13	=13	=13	=13	=13	=13	=13	=13	=13	=13	=13	=13	=13	=13	=13	=13	=13	=13	=13	=13
!	!LO:HP:b	!	!LO:HP:b	!	!	!	!	!	!	!	!	!	!	!	!	!	!	!	!	!	!	!	!	!	!	!	!
4FF/yy	<	4FF/	<	4c\	.	4f/	.	4an\	.	4F\	co	.	.	2r	.	.	4f/	co	.	.	4an\	co	.	.	4aan\	.	.
!	!	!	!	!	!LO:HP:b	!	!LO:HP:b	!	!LO:HP:b	!	!	!	!	!	!	!	!	!	!	!	!	!	!	!	!	!	!LO:HP:t=cres-
4DD/yy	.	4DD/	.	4c\	<	4f/	<	4a\	<	4D\	nas	.	<	.	.	.	4f/	nas	.	<	4a\	nas	.	<	4aa\	.	<
4GG/yy	.	4GG/	.	4d\	.	4g/	.	4bn\	.	4G\	wży-	.	.	4dd\	wży-	.	4g/	wzy-	.	.	4bn\	wzy-	.	.	4bbn\	.	.
4GG/yy	[	4GG/	[	4d\	[[	4g/	[[	4b\	[[	4G\	-ciu	.	[	4dd\	-ciu	.	4g/	-ciu	.	[	4b\	-ciu	.	[	4bb\	.	.
!	!	!	!	!	!	!	!	!	!	!	!	!	!	!	!	!	!	!	!	!	!LO:LB:g=original	!	!	!	!	!	!
=14	=14	=14	=14	=14	=14	=14	=14	=14	=14	=14	=14	=14	=14	=14	=14	=14	=14	=14	=14	=14	=14	=14	=14	=14	=14	=14	=14
*^	*	*^	*	*	*	*	*	*	*	*	*	*	*	*	*	*	*	*	*	*	*	*	*	*	*^	*	*
*	*	*	*	*	*	*	*	*	*	*2\right	*	*	*	*	*	*	*	*	*	*	*	*	*	*	*	*	*	*	*	*
!	!	!LO:HP:b	!	!	!LO:HP:b	!	!	!	!	!	!	!	!	!	!	!	!	!	!	!	!	!	!	!	!	!LO:DY:b:rj	!	!	!	!
2CC;/yy	2ryyyy	>	2CC;/	2ryy	>	2e 2G;\	.	2e 2G;/	.	2cc;\	.	4C;/	bo-	.	.	2cc\	bo	.	2e;/	bo	.	.	4cc;\	bo-	.	f	2ccc;\	2ryy	.	.
!	!	!	!	!	!	!	!	!	!	!	!	!LO:TX:a:i:t=Solo	!	!	!	!	!	!	!	!	!	!	!	!	!	!	!	!	!	!
!	!LO:TX:a:i:t=Solo	!	!	!LO:TX:a:i:t=Solo	!	!	!	!	!	!	!	!	!	!	!	!	!	!	!	!	!	!	!	!	!	!	!	!	!	!
.	.	.	.	.	.	.	.	.	.	.	.	4C/	.	.	.	.	.	.	.	.	.	.	(4b-\	.	.	.	.	.	.	.
*	*Xbrackettup	*	*	*Xbrackettup	*	*	*	*	*	*	*	*	*	*	*	*	*	*	*	*	*	*	*	*	*	*	*	*cue	*	*
!	!LO:TUP:b:problem=klamra łukowa	!	!	!LO:TUP:b:problem=klamra łukowa	!	!	!	!	!	!	!	!	!	!	!	!	!	!	!	!	!	!	!	!	!	!	!	!	!	!
2rCyy	6c/yy	]	2rC	6c/	]	2r	.	2r	.	2r	.	4D/	.	.	.	2r	.	.	2r	.	.	.	4a\	.	.	.	2raa	6b-\	.	.
.	6d/yy	.	.	6d/	.	.	.	.	.	.	.	.	.	.	.	.	.	.	.	.	.	.	.	.	.	.	.	6am>\	.	.
.	.	.	.	.	.	.	.	.	.	.	.	4E/	-li	.	.	.	.	.	.	.	.	.	4g\)	-li	.	.	.	.	.	.
*	*	*	*	*	*	*	*	*	*	*	*	*	*	*	*	*	*	*	*	*	*	*	*	*	*	*	*	*Xcue	*	*
.	6e/yy	.	.	6e/	.	.	.	.	.	.	.	.	.	.	.	.	.	.	.	.	.	.	.	.	.	.	.	6g\	.	.
*v	*v	*	*v	*v	*	*	*	*	*	*	*	*	*	*	*	*	*	*	*	*	*	*	*	*	*	*	*v	*v	*	*
=15	=15	=15	=15	=15	=15	=15	=15	=15	=15	=15	=15	=15	=15	=15	=15	=15	=15	=15	=15	=15	=15	=15	=15	=15	=15	=15	=15
4F\yy	.	4F\	.	4c\	.	4f/	.	4a/	.	4F\	Wszyst-	.	.	4cc\	wszy-	.	4f/	Wszyst-	.	.	4a\	Wszyst-	.	.	4aa\	.	.
4F\yy	.	4F\	.	4c\	.	4f/	.	4a/	.	4F\	-kie	.	.	4cc\	-stkie	.	4f/	-kie	.	.	4a\	-kie	.	.	4aa\	.	.
!	!	!	!	!	!	!	!LO:HP:b	!	!	!	!	!	!	!	!	!	!	!	!	!	!	!	!	!	!	!	!
4F\yy	.	4F\	.	4c\	.	4f/	<	4a/	.	4F\	gro-	.	.	4cc\	gro-	.	4f/	gro-	.	.	4a\	gro-	.	.	4aa\	.	.
!	!LO:HP:b	!	!LO:HP:b	!	!	!	!	!	!	!	!	!	!	!	!	!	!	!	!	!	!	!	!	!	!	!	!
4C\yy	<	4C\	<	4c\	.	4g/	.	4b-/	.	4C\	-m(y)	.	.	4cc\	-my	.	4g/	-my	.	.	4b-\	-my	.	.	4bb-\	.	.
!	!	!	!	!	!	!	!	!	!	!	!	!	!	!LO:LB:g=original	!	!	!LO:LB:g=original	!	!	!	!	!	!	!	!	!	!
=16	=16	=16	=16	=16	=16	=16	=16	=16	=16	=16	=16	=16	=16	=16	=16	=16	=16	=16	=16	=16	=16	=16	=16	=16	=16	=16	=16
!	!	!	!	!	!	!	!	!	!LO:HP:b	!	!	!	!	!	!	!	!	!	!	!	!	!	!	!LO:DY:a	!	!	!
4F\yy	.	4F\	.	4c\	.	4a/	.	(4cc\	<	(4F\	wy-	.	.	4cc\	wy-	.	4a/	wy-	.	.	4cc\	wy-	.	<	(4ccc\	.	<
4C\yy	.	4C\	.	4c\	.	4f/	.	4a\)	.	4C\)	-par-	.	.	4cc\	-par-	.	4f/	-par-	.	.	4a\	-par-	.	.	4aa\	.	.
2FF/yy	[	2FF/	[	2c\	.	2a/	[	2ff\	[	2F\	-ło	.	.	2cc\	-ła	.	2a/	-ła	.	.	2ff\	-ło	.	[	2fff\)	.	[
=17	=17	=17	=17	=17	=17	=17	=17	=17	=17	=17	=17	=17	=17	=17	=17	=17	=17	=17	=17	=17	=17	=17	=17	=17	=17	=17	=17
!	!LO:HP:b	!	!LO:HP:b	!	!	!	!LO:HP:b	!	!	!	!	!	!	!	!	!	!	!	!	!	!LO:N:vis=8	!	!	!	!	!	!
4CC/yy	>	4CC/	>	4c\	.	4f/	>	4a\	.	4F\	wTwe	.	.	4cc\	wTwe	.	4f/	wTwe	.	.	4a\	wTwe	.	.	4aa\	.	.
!	!	!	!	!	!	!	!	!	!LO:HP:b	!	!	!	!	!	!	!	!	!	!	!	!	!	!	!	!	!	!
4FF/yy	.	4FF/	.	4c\	.	(8a/L	.	8cc\L	>	8F\L	ser-	.	.	4cc\	ser-	.	8a/L	ser-	.	.	(8cc\L	ser-	.	.	(8ccc\L	.	>
.	.	.	.	.	.	8g/J)	.	8b-\J	.	8C\J	.	.	.	.	.	.	8g/J	.	.	.	8b-\J)	.	.	.	8bb-\J)	.	.
4F\yy	.	4F\	.	4c\	.	4f/	.	4a/	.	4F\	-ce	.	.	4cc\	-ce	.	4f/	-ce	.	.	4a/	-ce	.	.	4aa\	.	.
4C/yy	.	4C/	.	4B-\	.	4e/	.	4g/	.	4C\	zbo-	.	.	4b-\	zbo-	.	4e/	zbo-	.	.	4g/	zbo-	.	.	4gg\	.	.
!	!	!	!	!	!	!	!	!	!	!LO:LB:g=original	!	!	!	!	!	!	!	!	!	!	!	!	!	!	!	!	!
=18	=18	=18	=18	=18	=18	=18	=18	=18	=18	=18	=18	=18	=18	=18	=18	=18	=18	=18	=18	=18	=18	=18	=18	=18	=18	=18	=18
(y2C/yy	]	(2C/	]	(2B-/	.	(2e/	.	(2g/	]	(4E\	-la-	.	.	2b-/	-la-	.	2e/	-la-	.	.	2g/	-la-	.	.	(2gg\	.	.
.	.	.	.	.	.	.	.	.	.	4C\)	.	.	.	.	.	.	.	.	.	.	.	.	.	.	.	.	]
4FF/)yy	.	4FF/)	.	4A/)	.	4f/)	]	4f/)	.	4F\	-łe	.	.	4a/	-łe.	.	4f/	-łe	.	.	4f/	-łe	.	.	4ff\)	.	.
!	!	!	!	!	!	!	!	!	!	!	!	!	!	!	!	!	!LO:TX:t=P:problem=podwójna kreska taktowa	!	!	!	!	!	!	!	!	!	!
4ryy	.	4r	.	4r	.	4r	.	4r	.	4r	.	.	.	4r	.	.	4r	.	.	.	4r	.	.	.	4r	.	.
!	!	!	!	!	!	!	!	!	!	!	!	!	!	!	!	!	!	!	!	!	!	!	!	!	!LO:LB:g=original	!	!
=19	=19	=19	=19	=19	=19	=19	=19	=19	=19	=19	=19	=19	=19	=19	=19	=19	=19	=19	=19	=19	=19	=19	=19	=19	=19	=19	=19
*8va	*	*8va	*	*	*	*2\right	*	*	*	*	*	*	*	*	*	*	*2\right	*	*	*	*	*	*	*	*	*	*
!	!LO:DY:b	!	!LO:DY:b	!	!LO:DY:b	!	!LO:DY:b	!	!LO:DY:b	!	!	!	!LO:DY:b	!LO:TX:a:t=1.	!	!	!	!	!	!LO:DY:b:rj	!	!	!	!	!	!	!LO:DY:rj
2F/yy	fy	2F/	f	(2A/	f	2a\	f	2ff\	f	2F\	Ach	.	f	1r	.	.	2a\	Ach	.	f	2ff\	Ach	.	.	2fff\	.	f >
4G/yy	.	4G/	.	4B-/	.	4b-\	.	4ee\	.	4G\	modl	.	.	.	.	.	4b-\	mod	.	.	4ee\	modl	.	.	4eee\	.	.
!	!	!	!	!	!LO:HP:b	!	!	!	!	!	!	!	!	!	!	!	!	!	!	!	!	!	!	!	!	!	!
4A/yy	.	4A/	.	4c/	<	4cc\	.	4ee-X\	.	4A\	się	.	.	.	.	.	4cc\	się	.	.	4ee-X\	się	.	.	4eee-X\	.	]
!	!	!	!	!	!	!LO:LB:g=original	!	!LO:LB:g=original	!	!	!	!	!	!	!	!	!	!	!	!	!LO:LB:g=original	!	!	!	!	!	!
=20	=20	=20	=20	=20	=20	=20	=20	=20	=20	=20	=20	=20	=20	=20	=20	=20	=20	=20	=20	=20	=20	=20	=20	=20	=20	=20	=20
!	!LO:HP:b	!	!LO:HP:b	!	!	!	!LO:HP:b	!	!	!	!	!	!	!	!	!	!	!	!	!	!	!	!	!	!	!	!
4B-/yy	<	4B-/	<	4f\	.	4ff\	<	4dd\	.	4B-\	za	.	.	2r	.	.	4f/	za	.	.	4dd\	za	.	.	(4ddd\	.	<
4c/yy	.	4c/	.	4g\	.	4gg\	.	4een\	.	4c\	na-	.	.	.	.	.	4g/	na-	.	.	(4een\	na-	.	.	4eee\)	.	.
4F/yy	[	4F/	[	4c\	[	4aa\	[	4ff\	.	2F\	-mi	.	.	4cc\	mi	.	4a/	-mi	.	.	8ff\L	.	.	.	(8fff\L	.	[ >
.	.	.	.	.	.	.	.	.	.	.	.	.	.	.	.	.	.	.	.	.	8dd\	.	.	.	8ddd\	.	.
*X8va	*	*X8va	*	*	*	*	*	*	*	*	*	*	*	*	*	*	*	*	*	*	*	*	*	*	*	*	*
4ryy	.	4r	.	4r	.	4r	.	4r	.	.	.	.	.	4r	.	.	4r	.	.	.	8b-\)	.	.	.	8bb-\	.	]
.	.	.	.	.	.	.	.	.	.	.	.	.	.	.	.	.	.	.	.	.	8g\J	-mi	.	.	8gg\J)	.	.
!LO:LB:g=original	!	!LO:LB:g=original	!	!LO:LB:g=original	!	!	!	!	!	!	!	!	!	!	!	!	!LO:LB:g=original	!	!	!	!	!	!	!	!	!	!
=21	=21	=21	=21	=21	=21	=21	=21	=21	=21	=21	=21	=21	=21	=21	=21	=21	=21	=21	=21	=21	=21	=21	=21	=21	=21	=21	=21
!	!	!	!	!	!LO:HP:b	!	!LO:HP:b	!	!	!	!	!	!	!	!	!	!	!	!	!	!	!	!	!	!	!	!
4F\yy	.	4F\	.	4c\	>	4ff\	>	4a\	.	4F\	Ach	.	.	4cc\	Ach	.	4f/	Ach	.	.	4a\	Ach	.	.	4aa\	.	.
!	!LO:HP:b	!	!LO:HP:b	!	!	!	!	!	!	!	!	!	!	!	!	!	!	!	!	!	!	!	!	!	!	!	!
4ryy	>	4r	>	4c\	.	(8aa\L	.	(8cc\L	.	8F\L	modl	.	.	4cc\	modl	.	8a/L	modl	.	.	(8cc\L	modl	.	.	8ccc\L	.	.
.	.	.	.	.	.	8gg\J)	.	8b-\J)	.	8C\J	.	.	.	.	.	.	8g/J	.	.	.	8b-\J)	.	.	.	8bb-\J	.	.
4F\yy	.	4F\	.	4c\	.	4ff\	.	4a/	.	4F\	sie	.	.	4cc\	sie	.	4f/	sie	.	.	4a/	sie	.	.	4aa\	.	.
4C\yy	.	4C\	.	4B-\	.	4ee\	.	4g/	.	4C\	za	.	.	4b-\	za	.	4e/	za	.	.	4g/	za	.	.	4gg\	.	.
!	!	!	!	!	!	!	!	!	!	!	!	!	!	!LO:LB:g=original	!	!	!	!	!	!	!	!	!	!	!	!	!
=22	=22	=22	=22	=22	=22	=22	=22	=22	=22	=22	=22	=22	=22	=22	=22	=22	=22	=22	=22	=22	=22	=22	=22	=22	=22	=22	=22
!	!	!	!	!	!	!	!	!	!	!	!	!	!	!	!	!	!	!	!	!	!	!	!	!	!LO:TX:t=1. Vol.	!	!
(y2C/yy	.	(2C/	.	(2B-/	.	(2ee\	]	2g/	.	(4E\	na-	.	.	2b-/	na-	.	2e/	na-	.	.	2g/	na-	.	.	2gg\	.	.
.	.	.	.	.	.	.	.	.	.	4C\)	.	.	.	.	.	.	.	.	.	.	.	.	.	.	.	.	.
4FF/)yy	]	4FF/)	]	4A/))	]	4ff\)	.	4f/	.	4F\	-mi	.	.	4a/	-mi	.	4f/	-mi	.	.	4f/	-mi	.	.	16ff\LL	.	.
.	.	.	.	.	.	.	.	.	.	.	.	.	.	.	.	.	.	.	.	.	.	.	.	.	16ff\	.	.
.	.	.	.	.	.	.	.	.	.	.	.	.	.	.	.	.	.	.	.	.	.	.	.	.	16gg\	.	.
.	.	.	.	.	.	.	.	.	.	.	.	.	.	.	.	.	.	.	.	.	.	.	.	.	16aa\JJ	.	.
4ryy	.	4r	.	4r	.	4r	.	4r	.	4r	.	.	.	4r	.	.	4r	.	.	.	4r	.	.	.	16bb-\LL	.	.
.	.	.	.	.	.	.	.	.	.	.	.	.	.	.	.	.	.	.	.	.	.	.	.	.	16ccc\	.	.
.	.	.	.	.	.	.	.	.	.	.	.	.	.	.	.	.	.	.	.	.	.	.	.	.	16ddd\	.	.
.	.	.	.	.	.	.	.	.	.	.	.	.	.	.	.	.	.	.	.	.	.	.	.	.	16eee\JJ	.	.
!	!	!	!	!	!	!	!	!	!	!LO:LB:g=original	!	!	!	!	!	!	!	!	!	!	!	!	!	!	!	!	!
=23	=23	=23	=23	=23	=23	=23	=23	=23	=23	=23	=23	=23	=23	=23	=23	=23	=23	=23	=23	=23	=23	=23	=23	=23	=23	=23	=23
*8va	*	*8va	*	*	*	*	*	*	*	*	*	*	*	*	*	*	*	*	*	*	*	*	*	*	*	*	*
!LO:TX:t=P:problem=takty 23-26 zapisane powtórką	!LO:DY:b	!LO:TX:t=P:problem=takty 23-26 zapisane powtórką	!LO:DY:b	!LO:TX:t=P:problem=takty 23-26 zapisane powtórką	!LO:DY:b	!LO:TX:t=P:problem=takty 23-26 zapisane powtórką	!LO:DY:b	!LO:TX:t=P:problem=takty 23-26 zapisane powtórką	!LO:DY:b	!	!	!	!	!LO:TX:a:t=1.	!	!	!	!	!	!	!	!	!	!	!LO:TX:t=P:problem=takty 23-25 zapisane powtórką, z wyróżnieniem dwóch volt	!	!LO:DY:rj
2F/yyyy	fy	2F/yy	fy	(y2A/yy	fy	2a\yy	fy	2ff\yy	fy	2F\	Ach	.	.	1r	.	.	2a\	Ach	.	.	2ff\	Ach	.	.	2fff\yy	.	fy >
4G/yyyy	.	4G/yy	.	4B-/yy	.	4b-\yy	.	4ee\yy	.	4G\	modl	.	.	.	.	.	4b-\	mod	.	.	4ee\	modl	.	.	4eee\yy	.	.
!	!	!	!	!	!LO:HP:b	!	!	!	!	!	!	!	!	!	!	!	!	!	!	!	!	!	!	!	!	!	!
4A/yyyy	.	4A/yy	.	4c/yy	<	4cc\yy	.	4ee-X\yy	.	4A\	się	.	.	.	.	.	4cc\	się	.	.	4ee-X\	się	.	.	4eee-X\yy	.	]
!	!	!	!	!	!	!LO:LB:g=original	!	!LO:LB:g=original	!	!	!	!	!	!	!	!	!	!	!	!	!	!	!	!	!	!	!
=24	=24	=24	=24	=24	=24	=24	=24	=24	=24	=24	=24	=24	=24	=24	=24	=24	=24	=24	=24	=24	=24	=24	=24	=24	=24	=24	=24
!	!LO:HP:b	!	!LO:HP:b	!	!	!	!LO:HP:b	!	!	!	!	!	!	!	!	!	!	!	!	!	!	!	!	!	!	!	!
4B-/yyyy	<	4B-/yy	<	4f\yy	.	4ff\yy	<	4dd\yy	.	4B-\	za	.	.	2r	.	.	4f/	za	.	.	4dd\	za	.	.	(y4ddd\yy	.	<
4c/yyyy	.	4c/yy	.	4g\yy	.	4gg\yy	.	4een\yy	.	4c\	na-	.	.	.	.	.	4g/	na-	.	.	(4een\	na-	.	.	4eee\)yy	.	.
4F/yyyy	[	4F/yy	[	4c\yy	[	4aa\yy	[	4ff\yy	.	2F\	-mi	.	.	4cc\	mi	.	4a/	-mi	.	.	8ff\L	.	.	.	(y8fff\Lyy	.	[ >
.	.	.	.	.	.	.	.	.	.	.	.	.	.	.	.	.	.	.	.	.	8dd\	.	.	.	8ddd\yy	.	.
*X8va	*	*X8va	*	*	*	*	*	*	*	*	*	*	*	*	*	*	*	*	*	*	*	*	*	*	*	*	*
4ryyyy	.	4ryy	.	4ryy	.	4ryy	.	4ryy	.	.	.	.	.	4r	.	.	4r	.	.	.	8b-\)	.	.	.	8bb-\yy	.	]
.	.	.	.	.	.	.	.	.	.	.	.	.	.	.	.	.	.	.	.	.	8g\J	-mi	.	.	8gg\J)yy	.	.
!LO:LB:g=original	!	!LO:LB:g=original	!	!	!	!	!	!	!	!	!	!	!	!	!	!	!	!	!	!	!LO:LB:g=original	!	!	!	!	!	!
=25	=25	=25	=25	=25	=25	=25	=25	=25	=25	=25	=25	=25	=25	=25	=25	=25	=25	=25	=25	=25	=25	=25	=25	=25	=25	=25	=25
!	!	!	!	!	!LO:HP:b	!	!LO:HP:b	!	!	!	!	!	!	!	!	!	!	!	!	!	!	!	!	!	!	!	!
4F\yyyy	.	4F\yy	.	4c\yy	>	4ff\yy	>	4a\yy	.	4F\	Ach	.	.	4cc\	Ach	.	4f/	Ach	.	.	4a\	Ach	.	.	4aa\yy	.	.
!	!LO:HP:b	!	!LO:HP:b	!	!	!	!	!	!	!	!	!	!	!	!	!	!	!	!	!	!	!	!	!	!	!	!
4ryyyy	>	4ryy	>	4c\yy	.	(y8aa\Lyy	.	(y8cc\Lyy	.	8F\L	modl	.	.	4cc\	modl	.	8a/L	modl	.	.	8cc\L	modl	.	.	8ccc\Lyy	.	.
.	.	.	.	.	.	8gg\J)yy	.	8b-\J)yy	.	8C\J	.	.	.	.	.	.	8g/J	.	.	.	8b-\J	.	.	.	8bb-\Jyy	.	.
4F\yyyy	.	4F\yy	.	4c\yy	.	4ff\yy	.	4a/yy	.	4F\	się	.	.	4cc\	sie	.	4f/	sie	.	.	4a/	sie	.	.	4aa\yy	.	.
4C\yyyy	.	4C\yy	.	4B-\yy	.	4ee\yy	.	4g/yy	.	4C\	za	.	.	4b-\	za	.	4e/	za	.	.	4g/	za	.	.	4gg\yy	.	.
!	!	!	!	!	!	!	!	!	!	!	!	!	!	!	!	!	!LO:LB:g=original	!	!	!	!	!	!	!	!	!	!
=26	=26	=26	=26	=26	=26	=26	=26	=26	=26	=26	=26	=26	=26	=26	=26	=26	=26	=26	=26	=26	=26	=26	=26	=26	=26	=26	=26
!	!	!	!	!	!	!	!	!	!	!	!	!	!	!	!	!	!	!	!	!	!	!	!	!	!LO:TX:a:t=2 Vol.	!	!
(y2C/yyyy	.	(y2C/yy	.	(y2B-/yy	.	(y2ee\yy	]	2g/yy	.	(4E/	na-	.	.	2b-/	na-	.	2e/	na-	.	.	2g/	na-	.	.	2gg\	.	.
.	.	.	.	.	.	.	.	.	.	4C/)	.	.	.	.	.	.	.	.	.	.	.	.	.	.	.	.	.
4FF/)yyyy	]	4FF/)yy	]	4A/)yy	]	4ff\)yy	.	4f/yy	.	4F\	-mi	.	.	4a/	-mi	.	4f/	-mi	.	.	4f/	-mi	.	.	4ff\	.	.
!	!	!	!	!	!	!	!	!	!	!	!	!	!	!	!	!	!	!	!	!	!	!	!	!	!LO:TX:a:i:t=Solo	!	!
4ryyyy	.	4ryy	.	4ryy	.	4ryy	.	4ryy	.	4r	.	.	.	4r	.	.	4r	.	.	.	4r	.	.	.	8.cc\L	.	.
!	!	!	!	!	!	!	!	!	!	!	!	!	!	!	!	!	!LO:TX:t=P:problem=podwójna kreska taktowa	!	!	!	!LO:TX:t=P:problem=podwójna kreska taktowa	!	!	!	!	!	!
.	.	.	.	.	.	.	.	.	.	.	.	.	.	.	.	.	.	.	.	.	.	.	.	.	16cc\Jk	.	.
!	!	!	!	!	!	!	!	!	!	!	!	!	!	!	!	!	!	!	!	!	!	!	!	!	!LO:LB:g=original	!	!
=27	=27	=27	=27	=27	=27	=27	=27	=27	=27	=27	=27	=27	=27	=27	=27	=27	=27	=27	=27	=27	=27	=27	=27	=27	=27	=27	=27
!	!LO:DY:b	!	!LO:DY:b	!LO:TX:b:i:t=dol	!LO:DY:b:rj	!	!LO:DY:b:rj	!	!LO:DY:b:rj	!LO:TX:a:t=12.	!	!	!	!LO:TX:a:t=12.	!	!	!LO:TX:a:t=12.	!	!	!	!LO:TX:a:t=12.	!	!	!	!	!	!
4C/yy	py	4C/	p	(8B-\L	p	1e	p	1g	p	1r	.	.	.	1r	.	.	1r	.	.	.	1r	.	.	.	2bb-\	.	.
!	!	!	!	!	!	!	!	!	!	!	!	!	!	!	!	!	!	!	!	!	!	!	!	!	!LO:TX:a:i:t=Flutto	!	!
.	.	.	.	8c\	.	.	.	.	.	.	.	.	.	.	.	.	.	.	.	.	.	.	.	.	.	.	.
4ryy	.	4r	.	8G\	.	.	.	.	.	.	.	.	.	.	.	.	.	.	.	.	.	.	.	.	.	.	.
.	.	.	.	8c\J)	.	.	.	.	.	.	.	.	.	.	.	.	.	.	.	.	.	.	.	.	.	.	.
4C/yy	.	4C/	.	(8B-\L	.	.	.	.	.	.	.	.	.	.	.	.	.	.	.	.	.	.	.	.	8aa\L	.	.
.	.	.	.	8c\	.	.	.	.	.	.	.	.	.	.	.	.	.	.	.	.	.	.	.	.	8gg\	.	.
4ryy	.	4r	.	8G\	.	.	.	.	.	.	.	.	.	.	.	.	.	.	.	.	.	.	.	.	8ff\	.	.
.	.	.	.	8c\J)	.	.	.	.	.	.	.	.	.	.	.	.	.	.	.	.	.	.	.	.	8ee\J	.	.
=28	=28	=28	=28	=28	=28	=28	=28	=28	=28	=28	=28	=28	=28	=28	=28	=28	=28	=28	=28	=28	=28	=28	=28	=28	=28	=28	=28
!	!	!	!	!	!	!	!	!	!	!	!	!	!	!	!	!	!	!	!	!	!	!	!	!	!	!	!
4F\yy	.	4F\	.	8A\L	.	2.f/	.	2.a/	.	1r	.	.	.	1r	.	.	1r	.	.	.	1r	.	.	.	8.gg\L	.	.
.	.	.	.	(8c\	.	.	.	.	.	.	.	.	.	.	.	.	.	.	.	.	.	.	.	.	.	.	.
.	.	.	.	.	.	.	.	.	.	.	.	.	.	.	.	.	.	.	.	.	.	.	.	.	16ff\Jk	.	.
4ryy	.	4r	.	8A\)	.	.	.	.	.	.	.	.	.	.	.	.	.	.	.	.	.	.	.	.	4ff\	.	.
.	.	.	.	8c\J	.	.	.	.	.	.	.	.	.	.	.	.	.	.	.	.	.	.	.	.	.	.	.
4FF/yy	.	4FF/	.	4A\	.	.	.	.	.	.	.	.	.	.	.	.	.	.	.	.	.	.	.	.	4r	.	.
4ryy	.	4r	.	4r	.	4r	.	4ryy	.	.	.	.	.	.	.	.	.	.	.	.	.	.	.	.	8.cc\L	.	.
.	.	.	.	.	.	.	.	.	.	.	.	.	.	.	.	.	.	.	.	.	.	.	.	.	16cc\Jk	.	.
=29	=29	=29	=29	=29	=29	=29	=29	=29	=29	=29	=29	=29	=29	=29	=29	=29	=29	=29	=29	=29	=29	=29	=29	=29	=29	=29	=29
!LO:TX:a:t=1.	!	!LO:TX:a:t=1.	!	!LO:TX:a:t=1	!	!LO:TX:a:t=1.	!	!LO:TX:a:t=2	!	!	!	!	!	!	!	!	!	!	!	!	!	!	!	!	!	!	!
1ryy	.	1r	.	1r	.	1r	.	0r	.	1r	.	.	.	1r	.	.	1r	.	.	.	1r	.	.	.	8cc\L	.	.
.	.	.	.	.	.	.	.	.	.	.	.	.	.	.	.	.	.	.	.	.	.	.	.	.	8cc#X\	.	.
.	.	.	.	.	.	.	.	.	.	.	.	.	.	.	.	.	.	.	.	.	.	.	.	.	8ee\	.	.
.	.	.	.	.	.	.	.	.	.	.	.	.	.	.	.	.	.	.	.	.	.	.	.	.	8dd\J	.	.
.	.	.	.	.	.	.	.	.	.	.	.	.	.	.	.	.	.	.	.	.	.	.	.	.	8ccn\L	.	.
.	.	.	.	.	.	.	.	.	.	.	.	.	.	.	.	.	.	.	.	.	.	.	.	.	8b-\	.	.
.	.	.	.	.	.	.	.	.	.	.	.	.	.	.	.	.	.	.	.	.	.	.	.	.	8a\	.	.
.	.	.	.	.	.	.	.	.	.	.	.	.	.	.	.	.	.	.	.	.	.	.	.	.	8g\J	.	.
=30	=30	=30	=30	=30	=30	=30	=30	=30	=30	=30	=30	=30	=30	=30	=30	=30	=30	=30	=30	=30	=30	=30	=30	=30	=30	=30	=30
*	*	*	*	*tremolo	*	*	*	*	*	*	*	*	*	*	*	*	*	*	*	*	*	*	*	*	*	*	*
!	!LO:HP:b	!	!LO:HP:b	!	!	!	!	!	!	!	!	!	!	!	!	!	!	!	!	!	!	!	!	!	!	!	!
4FF/yy	>	4FF/	>	(8A\L	.	(2f/	.	.	.	1r	.	.	.	1r	.	.	1r	.	.	.	1r	.	.	.	2fT$sS/	.	.
.	.	.	.	8c\	.	.	.	.	.	.	.	.	.	.	.	.	.	.	.	.	.	.	.	.	.	.	.
4F\yy	.	4F\	.	8A\	.	.	.	.	.	.	.	.	.	.	.	.	.	.	.	.	.	.	.	.	.	.	.
.	.	.	.	8c\J)	.	.	.	.	.	.	.	.	.	.	.	.	.	.	.	.	.	.	.	.	.	.	.
4C\yy	]	4C\	]	(8G\L	.	4e/)	.	.	.	.	.	.	.	.	.	.	.	.	.	.	.	.	.	.	4e/	.	.
.	.	.	.	8c\	.	.	.	.	.	.	.	.	.	.	.	.	.	.	.	.	.	.	.	.	.	.	.
4ryy	.	4r	.	8G\	.	4r	.	.	.	.	.	.	.	.	.	.	.	.	.	.	.	.	.	.	8.cc\L	.	.
.	.	.	.	8c\J)	.	.	.	.	.	.	.	.	.	.	.	.	.	.	.	.	.	.	.	.	.	.	.
.	.	.	.	.	.	.	.	.	.	.	.	.	.	.	.	.	.	.	.	.	.	.	.	.	16cc\Jk	.	.
!	!	!	!	!LO:LB:g=original	!	!	!	!	!	!	!	!	!	!	!	!	!	!	!	!	!	!	!	!	!	!	!
=31	=31	=31	=31	=31	=31	=31	=31	=31	=31	=31	=31	=31	=31	=31	=31	=31	=31	=31	=31	=31	=31	=31	=31	=31	=31	=31	=31
4C/yy	.	4C/	.	(8B-\L	.	1e	.	1g	.	1r	.	.	.	1r	.	.	1r	.	.	.	1r	.	.	.	2bb-\	.	.
.	.	.	.	8c\	.	.	.	.	.	.	.	.	.	.	.	.	.	.	.	.	.	.	.	.	.	.	.
4ryy	.	4r	.	8G\	.	.	.	.	.	.	.	.	.	.	.	.	.	.	.	.	.	.	.	.	.	.	.
.	.	.	.	8c\J)	.	.	.	.	.	.	.	.	.	.	.	.	.	.	.	.	.	.	.	.	.	.	.
*	*	*	*	*	*	*	*	*	*	*	*	*	*	*	*	*	*	*	*	*	*	*	*	*	*Xtuplet	*	*
4C/yy	.	4C/	.	(8B-\L	.	.	.	.	.	.	.	.	.	.	.	.	.	.	.	.	.	.	.	.	12aa\L	.	.
.	.	.	.	.	.	.	.	.	.	.	.	.	.	.	.	.	.	.	.	.	.	.	.	.	12gg\	.	.
.	.	.	.	8c\	.	.	.	.	.	.	.	.	.	.	.	.	.	.	.	.	.	.	.	.	.	.	.
.	.	.	.	.	.	.	.	.	.	.	.	.	.	.	.	.	.	.	.	.	.	.	.	.	12ff#X\J	.	.
4ryy	.	4r	.	8G\)	.	.	.	.	.	.	.	.	.	.	.	.	.	.	.	.	.	.	.	.	12gg\L	.	.
.	.	.	.	.	.	.	.	.	.	.	.	.	.	.	.	.	.	.	.	.	.	.	.	.	12aam\	.	.
.	.	.	.	8c\J	.	.	.	.	.	.	.	.	.	.	.	.	.	.	.	.	.	.	.	.	.	.	.
.	.	.	.	.	.	.	.	.	.	.	.	.	.	.	.	.	.	.	.	.	.	.	.	.	12bb-\J	.	.
!	!	!	!	!	!	!	!	!	!	!	!	!	!	!	!	!	!	!	!	!	!	!	!	!	!LO:LB:g=original	!	!
=32	=32	=32	=32	=32	=32	=32	=32	=32	=32	=32	=32	=32	=32	=32	=32	=32	=32	=32	=32	=32	=32	=32	=32	=32	=32	=32	=32
4F\yy	.	4F\	.	(8A\L	.	2.f/	.	2.f/	.	1r	.	.	.	1r	.	.	1r	.	.	.	1r	.	.	.	8ddd\L	.	<
.	.	.	.	8c\	.	.	.	.	.	.	.	.	.	.	.	.	.	.	.	.	.	.	.	.	8bb-\J	.	.
4ryy	.	4r	.	8A\	.	.	.	.	.	.	.	.	.	.	.	.	.	.	.	.	.	.	.	.	[4fff\	.	[
.	.	.	.	8c\J)	.	.	.	.	.	.	.	.	.	.	.	.	.	.	.	.	.	.	.	.	.	.	.
4FF/yy	.	4FF/	.	4A\	.	.	.	.	.	.	.	.	.	.	.	.	.	.	.	.	.	.	.	.	(12fff\L]	.	>
.	.	.	.	.	.	.	.	.	.	.	.	.	.	.	.	.	.	.	.	.	.	.	.	.	12eeem\	.	.
.	.	.	.	.	.	.	.	.	.	.	.	.	.	.	.	.	.	.	.	.	.	.	.	.	12ddd\J)	.	.
4ryy	.	4r	.	4r	.	4r	.	4r	.	.	.	.	.	.	.	.	.	.	.	.	.	.	.	.	(12ccc\L	.	.
.	.	.	.	.	.	.	.	.	.	.	.	.	.	.	.	.	.	.	.	.	.	.	.	.	12bb-M\	.	]
.	.	.	.	.	.	.	.	.	.	.	.	.	.	.	.	.	.	.	.	.	.	.	.	.	12aa\J)	.	.
!LO:LB:g=original	!	!LO:LB:g=original	!	!	!	!LO:LB:g=original	!	!	!	!	!	!	!	!	!	!	!	!	!	!	!	!	!	!	!	!	!
=33	=33	=33	=33	=33	=33	=33	=33	=33	=33	=33	=33	=33	=33	=33	=33	=33	=33	=33	=33	=33	=33	=33	=33	=33	=33	=33	=33
2ryy	.	2r	.	2r	.	2r	.	2r	.	1r	.	.	.	1r	.	.	1r	.	.	.	1r	.	.	.	(12gg\L	.	.
.	.	.	.	.	.	.	.	.	.	.	.	.	.	.	.	.	.	.	.	.	.	.	.	.	12aa'\	.	<
.	.	.	.	.	.	.	.	.	.	.	.	.	.	.	.	.	.	.	.	.	.	.	.	.	12bb-'\J	.	.
.	.	.	.	.	.	.	.	.	.	.	.	.	.	.	.	.	.	.	.	.	.	.	.	.	12ccc'\L	.	.
.	.	.	.	.	.	.	.	.	.	.	.	.	.	.	.	.	.	.	.	.	.	.	.	.	12ccc#X'\	.	.
.	.	.	.	.	.	.	.	.	.	.	.	.	.	.	.	.	.	.	.	.	.	.	.	.	12ddd'\J)	.	[
4F\yy	.	4F\	.	(8A\L	.	4f/	.	4a/	.	.	.	.	.	.	.	.	.	.	.	.	.	.	.	.	(4ffT$sS\	.	.
.	.	.	.	8c\	.	.	.	.	.	.	.	.	.	.	.	.	.	.	.	.	.	.	.	.	.	.	.
4C\yy	.	4C\	.	8G\	.	4e/	.	4g/	.	.	.	.	.	.	.	.	.	.	.	.	.	.	.	.	8.aa\L)	.	.
.	.	.	.	8c\J)	.	.	.	.	.	.	.	.	.	.	.	.	.	.	.	.	.	.	.	.	.	.	.
.	.	.	.	.	.	.	.	.	.	.	.	.	.	.	.	.	.	.	.	.	.	.	.	.	16gg\Jk	.	.
!	!	!	!	!	!	!	!	!LO:LB:g=original	!	!	!	!	!	!	!	!	!	!	!	!	!	!	!	!	!	!	!
=34	=34	=34	=34	=34	=34	=34	=34	=34	=34	=34	=34	=34	=34	=34	=34	=34	=34	=34	=34	=34	=34	=34	=34	=34	=34	=34	=34
(y2C/yy	.	(2C/	.	(8G\L	.	2e/	.	(2e/	.	1r	.	.	.	1r	.	.	1r	.	.	.	1r	.	.	.	(2gg 2b-\	.	.
.	.	.	.	8c\	.	.	.	.	.	.	.	.	.	.	.	.	.	.	.	.	.	.	.	.	.	.	.
.	.	.	.	8G\	.	.	.	.	.	.	.	.	.	.	.	.	.	.	.	.	.	.	.	.	.	.	.
.	.	.	.	8c\J)	.	.	.	.	.	.	.	.	.	.	.	.	.	.	.	.	.	.	.	.	.	.	.
4FF/)yy	.	4FF/)	.	4A\	.	4f/	.	4f/)	.	.	.	.	.	.	.	.	.	.	.	.	.	.	.	.	4ff 4a\)	.	.
*	*	*	*	*	*	*	*	*	*	*	*	*	*	*	*	*	*	*	*	*	*	*	*	*	*	*below	*
!	!	!	!	!	!	!	!	!	!	!	!	!	!	!	!	!	!	!	!	!	!	!	!	!	!LO:TX:a:i:t=4 Corda	!	!LO:DY:rj
4ryy	.	4r	.	4r	.	4r	.	4r	.	.	.	.	.	.	.	.	.	.	.	.	.	.	.	.	8.c/L	1	p
!	!	!	!	!	!	!	!	!	!	!	!	!	!	!	!	!	!	!	!	!	!	!	!	!	!LO:TX:b:i:t=dol	!	!
.	.	.	.	.	.	.	.	.	.	.	.	.	.	.	.	.	.	.	.	.	.	.	.	.	16c/Jk	.	.
=35	=35	=35	=35	=35	=35	=35	=35	=35	=35	=35	=35	=35	=35	=35	=35	=35	=35	=35	=35	=35	=35	=35	=35	=35	=35	=35	=35
!	!LO:DY:b:rj	!	!LO:DY:b:rj	!	!LO:DY:b	!	!LO:DY:b:rj	!LO:TX:a:t=4.	!	!	!	!	!	!	!	!	!	!	!	!	!	!	!	!	!LO:TX:a:i:t=Violino	!	!
1CCyy	ppy	1CC	pp	1B-	pp	1e	pp	00r	.	1r	.	.	.	1r	.	.	1r	.	.	.	1r	.	.	.	8c/L	.	.
.	.	.	.	.	.	.	.	.	.	.	.	.	.	.	.	.	.	.	.	.	.	.	.	.	8b-/	4	.
.	.	.	.	.	.	.	.	.	.	.	.	.	.	.	.	.	.	.	.	.	.	.	.	.	8a/	.	.
.	.	.	.	.	.	.	.	.	.	.	.	.	.	.	.	.	.	.	.	.	.	.	.	.	8g/J	.	.
.	.	.	.	.	.	.	.	.	.	.	.	.	.	.	.	.	.	.	.	.	.	.	.	.	8f/L	.	.
.	.	.	.	.	.	.	.	.	.	.	.	.	.	.	.	.	.	.	.	.	.	.	.	.	8e/	.	.
.	.	.	.	.	.	.	.	.	.	.	.	.	.	.	.	.	.	.	.	.	.	.	.	.	8d/	.	.
.	.	.	.	.	.	.	.	.	.	.	.	.	.	.	.	.	.	.	.	.	.	.	.	.	8e/J	.	.
!	!	!	!	!	!	!	!	!	!	!	!	!	!	!	!	!	!	!	!	!	!	!	!	!	!LO:LB:g=original	!	!
=36	=36	=36	=36	=36	=36	=36	=36	=36	=36	=36	=36	=36	=36	=36	=36	=36	=36	=36	=36	=36	=36	=36	=36	=36	=36	=36	=36
(y2GG/yy	.	(2GG/	.	(2B-/	.	(2e/	.	.	.	1r	.	.	.	1r	.	.	1r	.	.	.	1r	.	.	.	(2g/	.	.
4FF/)yy	.	4FF/)	.	4A/)	.	4f/)	.	.	.	.	.	.	.	.	.	.	.	.	.	.	.	.	.	.	4f/)	.	.
!LO:TX:a:i:t=Solo	!LO:DY:b	!LO:TX:a:i:t=Solo	!LO:DY:b	!	!	!	!	!	!	!	!	!	!	!	!	!	!	!	!	!	!	!	!	!	!	!	!
8.C/Lyy	ppy	8.C/L	pp	4r	.	4r	.	.	.	.	.	.	.	.	.	.	.	.	.	.	.	.	.	.	4r	.	.
16C/Jkyy	.	16C/Jk	.	.	.	.	.	.	.	.	.	.	.	.	.	.	.	.	.	.	.	.	.	.	.	.	.
!	!	!	!	!LO:LB:g=original	!	!	!	!	!	!	!	!	!	!	!	!	!	!	!	!	!	!	!	!	!	!	!
=37	=37	=37	=37	=37	=37	=37	=37	=37	=37	=37	=37	=37	=37	=37	=37	=37	=37	=37	=37	=37	=37	=37	=37	=37	=37	=37	=37
!	!	!LO:TX:a:i:t=Violonzel	!LO:HP:b	!	!LO:HP:b:t=dimi	!	!LO:HP:b:t=dimi	!	!	!	!	!	!	!	!	!	!	!	!	!	!	!	!	!	!	!	!LO:HP:t=dimi
[>1C	pp	8C\L	<	1c	>	1g	>	.	.	1r	.	.	.	1r	.	.	1r	.	.	.	1r	.	.	.	1ee 1b-	.	>
.	.	(8E\	.	.	.	.	.	.	.	.	.	.	.	.	.	.	.	.	.	.	.	.	.	.	.	.	.
.	.	8G\	.	.	.	.	.	.	.	.	.	.	.	.	.	.	.	.	.	.	.	.	.	.	.	.	.
.	.	8A\J	.	.	.	.	.	.	.	.	.	.	.	.	.	.	.	.	.	.	.	.	.	.	.	.	.
.	.	8B-\L	.	.	.	.	.	.	.	.	.	.	.	.	.	.	.	.	.	.	.	.	.	.	.	.	.
!	!	!LO:TX:b:i:t=dol&colon;	!	!	!	!	!	!	!	!	!	!	!	!	!	!	!	!	!	!	!	!	!	!	!	!	!
.	.	8c\	.	.	.	.	.	.	.	.	.	.	.	.	.	.	.	.	.	.	.	.	.	.	.	.	.
.	.	8d\	.	.	.	.	.	.	.	.	.	.	.	.	.	.	.	.	.	.	.	.	.	.	.	.	.
.	.	8e\J)	.	.	.	.	.	.	.	.	.	.	.	.	.	.	.	.	.	.	.	.	.	.	.	.	.
=38	=38	=38	=38	=38	=38	=38	=38	=38	=38	=38	=38	=38	=38	=38	=38	=38	=38	=38	=38	=38	=38	=38	=38	=38	=38	=38	=38
2C]	.	(4.e\	.	(2c\	.	2g/	.	.	.	1r	.	.	.	1r	.	.	1r	.	.	.	1r	.	.	.	(2ee 2b-\	.	.
.	.	32f\LLL	[	.	.	.	.	.	.	.	.	.	.	.	.	.	.	.	.	.	.	.	.	.	.	.	.
.	.	32e\	.	.	.	.	.	.	.	.	.	.	.	.	.	.	.	.	.	.	.	.	.	.	.	.	.
.	.	32d\	.	.	.	.	.	.	.	.	.	.	.	.	.	.	.	.	.	.	.	.	.	.	.	.	.
!	!	!	!LO:HP:b	!	!	!	!	!	!	!	!	!	!	!	!	!	!	!	!	!	!	!	!	!	!	!	!
.	.	(32e\JJJ)	>	.	.	.	.	.	.	.	.	.	.	.	.	.	.	.	.	.	.	.	.	.	.	.	.
4F;	.	4f;\)	.	4c\)	.	4f;/	.	.	.	.	.	.	.	.	.	.	.	.	.	.	.	.	.	.	4ff 4a\)	.	.
!	!	!	!	!	!	!	!	!	!	!	!	!	!	!LO:TX:b:t=Jezeli same głosy powtorzyc gdzie dwa wiersze\nnastępne dwie pazy opuscic	!	!	!LO:TX:b:t=Jezeli bez Muzyki, to dwa takty gdzie dwa wiersze\npowtorzyc a następne pauzy wypuścic	!	!	!	!LO:TX:b:t=Jezeli same głosy spiewaią bez Muzyki\nna ten czas poftarza się te dwa takty gdzie dwa\nwiersze a w miese tych wyrzucić dw nut&colon; pauzy.	!	!	!	!	!	!
4r	.	4r	]	4r	.	4r	.	.	.	.	.	.	.	.	.	.	.	.	.	.	.	.	.	.	4r	.	.
==	==	==	==	==	==	==	==	==	==	==	==	==	==	==	==	==	==	==	==	==	==	==	==	==	==	==	==
*-	*-	*-	*-	*-	*-	*-	*-	*-	*-	*-	*-	*-	*-	*-	*-	*-	*-	*-	*-	*-	*-	*-	*-	*-	*-	*-	*-
!!!system-decoration: s1[(s2,s3,s4,s5)][(s6,s7,s8,s9,s10)]
!!!RDF**kern: > = above
!!!RDF**kern: < = below
!!!RDF**dynam: f = "for"
!!!AIN: 1 barit 1 cbass 1 cello 1 viola 2 violn
!!!ENC: Mateusz Solarz
!!!END: 2020-07-23
!!!ENC: Marta Lawrence
!!!END: 2021-12-28
